X:1
T:Regnant, 77.77.77
T:Regnant, 77.77.77
T:Arr. from Handel by Alfred J. Foxwell ca. 1902
T:Public Domain Courtesy of the Cyber Hymnal™
C:Arr. from Handel by Alfred J. Foxwell ca. 1902
Z:Public Domain
Z:Courtesy of the Cyber Hymnal™
%%score ( 1 2 ) ( 3 4 )
L:1/8
Q:1/4=115
M:3/4
K:Eb
V:1 treble 
V:2 treble 
V:3 bass 
V:4 bass 
V:1
 [EG]4 F2 | [EA]4 [DG]2 | ([CF]2 ED) (EF) | [B,D]6 | B4 [EB]2 | [Ec]4 [Ac]2 | (de B2) [FA]2 | %7
 [EG]6 | [EB]4 [EB]2 | [Ge]4 B2 | ([=Af]2 ed) (ef) | [Fd]6 | ([Ee]2 [Fd]2) [Gc]2 | [Ff]4 [Ge]2 | %14
 (de z) c x5 | [DB]6 | [EG]4 F2 | [EA]4 [DG]2 | ([CF]2 ED) (EF) | [B,D]6 | B4 [Ee]2 | B4 [Ee]2 | %22
 (AG F2) [DF]2 | E6 |] %24
V:2
 x4 F2 | x6 | x2 B,2 =A,2 | x6 | (B,2 D2) x2 | x6 | F4 x2 | x6 | x6 | x4 B2 | x2 B2 [Fc]2 | x6 | %12
 x6 | x6 | F4 c3 E2 | x6 | x4 F2 | x6 | x2 B,2 =A,2 | x6 | (B,2 D2) x2 | (F2 D2) x2 | E4 x2 | E6 |] %24
V:3
 [E,B,]4 [D,B,]2 | C2 A,2 [B,,B,]2 | F,4 [C,F,]2 | [B,,F,]6 | G,2 [F,A,]2 [E,G,]2 | %5
 [A,C]2 [G,B,]2 [F,A,]2 | B,4 [D,B,]2 | [E,B,]6 | [E,G,]2 [G,B,]2 [E,G,]2 | E,2 C2 [G,B,]2 | %10
 (C2 B,2) [F,=A,]2 | B,6 | B,4 (G,=A,) | [D,B,]4 [C,B,]2 | [F,B,]4 [F,=A,]2 x3 | [B,,B,]6 | %16
 [E,B,]4 [D,B,]2 | C2 A,2 [B,,B,]2 | F,4 [C,F,]2 | [B,,F,]6 | G,2 [F,A,]2 [E,G,]2 | %21
 [D,F,]2 [B,,A,]2 [C,G,]2 | [A,,C]4 (B,A,) | [E,G,]6 |] %24
V:4
 x6 | C,4 x2 | (A,,2 B,,2) x2 | x6 | G,2 x4 | x6 | (B,2 D,2) x2 | x6 | x6 | C,4 x2 | F,4 x2 | B,6 | %12
 (G,2 F,2) E,2 | x6 | x9 | x6 | x6 | C,4 x2 | (A,,2 B,,2) x2 | x6 | G,2 x4 | x6 | x4 B,,2 | x6 |] %24

